X:1
T:Title
%%score { ( 1 4 ) | ( 2 3 ) }
L:1/8
M:8/4
K:C
V:1 treble nm="Grand Piano"
V:4 treble 
V:2 bass 
V:3 bass 
V:1
 z4 z2[Q:1/4=175] C2 | C4 E2 F2 G6 G2 | c4 [EB]2 A2 G4 z2 E2 | B4 A4 G4 F4 |[M:6/4] E4 A2- A2 D4 | %5
[M:2/4] B,2- [B,D]2 |[M:8/4] C4 E2 F2 G4 G4 | c4 [EB]2 A2 G4 z2 D2 | B2 A2 G2 F2 [CE]4 [CD]4 | %9
[M:7/4] [B,D]2- [B,D]6 C6 |[M:1/4] G2 |[M:8/4] z2 D2 [G,G]2- [G,FG]2 [CEG]4 ^G4 | %12
 z2 E2 [A,A]2- [A,GA]2 [DFA]4 .[DFA]4 | [CGc]4 .[CAc]4 [EGc]4 [CE]4 | %14
[M:7/4] G2- G4- G3/2 z/ z2 z4 |[M:1/4] G2 |[M:8/4] z2 D2 [G,G]2- [G,FG]2 [CEG]4 ^G4 | %17
 z2 E2 [A,A]2- [A,GA]2 [DFA]4 .[DFA]4 | [CGc]4 .[CAc]4 [EGc]4 [CE]4 | %19
[M:17/8] G-G-G-G-G- G3 z z z z z z z z2 |] %20
V:2
 z4 z2 [C,E,]2 | z4 [G,C]4 z8 | [C,A,C]4 C,2- [C,F,F]2 [C,E,]4 C2 B,2 | %3
 [E,^G,D]4 [F,A,C]4 [D,A,D]4 [D,A,D]4 |[M:6/4] C4- [^F,C_E]2- [F,CE]2 [G,B,]4 |[M:2/4] z2 F,2 | %6
[M:8/4] [C,E,]4 [G,C]2- [D,G,C]2 [E,G,C]4 [E,G,C]4 | [C,A,C]4 G,2 [F,F]2 [C,E,]4 C2 B,2 | %8
 [F,A,C]4 [D,A,D]4 [G,,G,]4 [G,,G,]4 |[M:7/4] [G,,F,]2- [G,,F,]6 [C,E,]6 |[M:1/4] G,2 | %11
[M:8/4] B,2 B,2 z2 D2 C,4 ^G,4 | z2 ^C2 z2 E2 D,4 z2[K:treble] B2 | E,4 z2 D2 G,4 G,4 | %14
[M:7/4] z4 B,4 C,6 |[M:1/4] G,2 |[M:8/4] B,2 B,2 z2 D2 C,4 ^G,4 | %17
 z2 ^C2 z2 E2 D,4 z2[K:treble] B2 | E,4 z2 D2 G,4 G,4 | %19
[M:17/8] z z z2 B,- B,3 C,-C,-C,-C,-C,-C,- C,3 |] %20
V:3
 x8 | [C,E,]4 C,2 D,2 [E,G,C]6 [E,G,C]2 | z4 .G,4 z4 E,4 | x16 |[M:6/4] .G,6 z6 |[M:2/4] G,,4 | %6
[M:8/4] z4 .C,4 z8 | z4 C,4 z4 E,4 | x16 |[M:7/4] x14 |[M:1/4] x2 |[M:8/4] G,4 G,,4 z8 | %12
 A,4 A,,4 z4 D,4[K:treble] | z4 F,4 z8 |[M:7/4] G,,2- G,,4- G,,3/2 z/ z2 z4 |[M:1/4] x2 | %16
[M:8/4] G,4 G,,4 z8 | A,4 A,,4 z4 D,4[K:treble] | z4 F,4 z8 | %19
[M:17/8] G,,-G,,-G,,-G,,-G,,- G,,2- G,,/ z/ z z z z z z z z2 |] %20
V:4
 x8 | x16 | z8 z4 ^G4 | x16 |[M:6/4] x12 |[M:2/4] [G,E]2 z2 |[M:8/4] x16 | z8 z4 ^G4 | x16 | %9
[M:7/4] x14 |[M:1/4] x2 |[M:8/4] G4 .[CE]4 z8 | A4 .[DF]4 z8 | x16 |[M:7/4] [CD]4 F4 [CEG]6 | %15
[M:1/4] x2 |[M:8/4] G4 .[CE]4 z8 | A4 .[DF]4 z8 | x16 | %19
[M:17/8] [CD]- [CD]3 F- F3 [CEG]-[CEG]-[CEG]-[CEG]-[CEG]-[CEG]- [CEG]3 |] %20

